public/img/circle-question-focused.svg

<svg height="1024" width="1024" xmlns="http://www.w3.org/2000/svg">
  <path fill="#999" d="M512,0C229.23,0,0,229.23,0,512c0,282.77,229.23,512,512,512c282.77,0,512-229.23,512-512
  	C1024,229.23,794.77,0,512,0z M576,768H448V640h128V768z M576,576H448c0-64,128-64,128-128c0-32-32-64-64-64s-64,32-64,64H320
  	c0-96,96-192,192-192s192,64,192,160S640,554,576,576z"/>
</svg>

<svg width="1024" height="1024" xmlns="http://www.w3.org/2000/svg">
 <path d="m512 0c-282.77 0-512 229.23-512 512s229.23 512 512 512 512-229.23 512-512-229.23-512-512-512zm64 768h-128v-128h128v128zm0-192h-128c0-64 128-64 128-128 0-32-32-64-64-64s-64 32-64 64h-128c0-96 96-192 192-192s192 64 192 160-64 138-128 160z" fill="#999"/>
</svg>
